X:160
T:Jack is a Live
A:Wyresdale, Lancashire
B:E and J Winder, 1835-41
L:1/8
M:C|
O:England
Z:Richard Robinson 
%%RRN:"a Jigg"
%%TUNEURL: http://www.leeds.ac.uk/music/Info/RRTuneBk/gettune/00000e9f.html
%%ID:00000e9f
K:G
G2GB A2Ac | dBcA BG F(E/D/) | G2GB A2Ac | dBcA G2G2 :: \
g2ga f2fg | e2eg agfe | ! g2ga f2fg | egaf g2g2 |\
g2ga f2fg | e2eg agfd |   a2Bd e2Ac | dBcA | G2G2 :|
